X: 173
T: Aşkın ile Bülbül Gibi...
C: Ali Bey (Enderûnî)
O: Turkey
F: http://compmusic.upf.edu/node/140
N: ussak--sarki--yuruksemai--askin_ile--enderuni_ali_bey
N: makam= ussak
N: form= sarki
N: usul= yuruksemai = 6/8
M: 6/8
L: 1/16
K: C _2/4B   
Q: 1/4=102
%%MIDI tuningsystem comma53
G4G4 A4A4 A8  | B2A2B4 c4B2A2 A8  | B6A2 d4c2B2 B2A2{c}B2A2  | 
w:  Aş kın_ i le  bül  |  bül  *  *  gi bi  *  art  |  mak *  ta dır_ *  â  | 
A8 A2G2^F2E2 D6z2  | G4G4 A4A4 A8  | \
w:  hım   SAZ  |  Aş kın_ i le  bül  | 
B2A2B4 c4B2A2 A8  | B6A2 d4c2B2 B2A2{c}B2A2  | 
w:  bül  *  *  gi bi  *  art  |  mak *  ta dır_ *  â  | 
A12c4 d8  | c4d4 d4d4 d2e6  | e6d2 d4{e}d2c2 c8  | \
w:  hım   SAZ  |  Kay det  be ni  de   |  def *  ter_ *  i  *  Uş  | 
d4e2f2 g4f2e2 d4{f}e2d2  | 
w:  şâ *  *  ka  a  *  mâ  | 
d8 d2c2B2A2 G6z2  | c4d4 d4d2_7/8e2 edcBc4  | \
w:  hım    |  Kay det  be ni  *  de   | 
d6c2 ^f2_7/8e2d2c2 B3AG4  | 
w:  def *  ter_ *  i  *  Uş  | 
c6B2 d2c4B2 B2A2c2{B}A2  | A12g4 a8  | \
w:  şâ *  *  *  ka  a  *  mâ  |  hım   SAZ  | 
g4g4 a4a4 a8  | g6^f2 a4g2f2 e6d2  | 
w:  Af fey le  e ğer   |  şûh_ *  i  ci *  hân   | 
e4f2g2 e4e2d2 d4{f}e2d2  | d12g4 a8  | \
w:  var *  *  sa  gü *  nâ  |  hım   SAZ  | 
g4g4 a4a4 a8  | g6^f2 a4g2f2 e6d2  | 
w:  Af fey le  e ğer   |  şûh_ *  i  ci *  hân   | 
e4f2g2 e4e2d2 d4{f}e2d2  | d12c4 d8  | \
w:  var *  *  sa  gü *  nâ  |  hım   SAZ  | 
c4d4 d4d4 d2e6  | e6d2 d4{e}d2c2 c8  | 
w:  Kay det  be ni  de   |  def *  ter_ *  i  *  Uş  | 
d4e2f2 g4f2e2 d4{f}e2d2  | d8 d2c2B2A2 G6z2  | \
w:  şâ *  *  ka  a  *  mâ  |  hım    | 
c4d4 d4d2_7/8e2 edcBc4  | 
w:  Kay det  be ni  *  de   | 
d6c2 ^f2_7/8e2d2c2 B3AG4  | c6B2 d2c4B2 B2A2c2{B}A2  | \
w:  def *  ter_ *  i  *  Uş  |  şâ *  *  *  ka  a  *  mâ  | 
A12|
w:  hım    | 


